static/assets/img/icons/theme/home/lamp-1.svg

<svg height="24" viewBox="0 0 24 24" width="24" xmlns="http://www.w3.org/2000/svg"><g fill="none" fill-rule="evenodd"><path d="m0 0h24v24h-24z" opacity="0"/><path d="m10 19h4c1.1045695 0 2 .8954305 2 2h-8c0-1.1045695.8954305-2 2-2z" fill="#000"/><rect fill="#000" height="6" opacity=".3" rx="1" width="2" x="11" y="12"/><rect fill="#fff" height="5" rx="1" transform="matrix(.96592583 -.25881905 .25881905 .96592583 -1.678828 4.595301)" width="2" x="15.612973" y="6.173634"/><path d="m7.44151844 4h9.11696316c.8608608 0 1.6251385.55086019 1.8973666 1.36754447l2.5441518 7.63245553h-18l2.54415184-7.63245553c.2722281-.81668428 1.03650578-1.36754447 1.8973666-1.36754447z" fill="#000"/></g></svg>

<svg width="24px" height="24px" viewBox="0 0 24 24" version="1.1" xmlns="http://www.w3.org/2000/svg" xmlns:xlink="http://www.w3.org/1999/xlink">
    <title>Icon For Lamp#1</title>
    <g stroke="none" stroke-width="1" fill="none" fill-rule="evenodd">
        <rect opacity="0" x="0" y="0" width="24" height="24"></rect>
        <path d="M10,19 L14,19 C15.1045695,19 16,19.8954305 16,21 L8,21 L8,21 C8,19.8954305 8.8954305,19 10,19 Z" fill="#000000"></path>
        <rect fill="#000000" opacity="0.3" x="11" y="12" width="2" height="6" rx="1"></rect>
        <rect fill="#FFFFFF" transform="translate(16.612973, 8.673634) rotate(-15.000000) translate(-16.612973, -8.673634) " x="15.6129734" y="6.17363361" width="2" height="5" rx="1"></rect>
        <path d="M7.44151844,4 L16.5584816,4 C17.4193424,4 18.1836201,4.55086019 18.4558482,5.36754447 L21,13 L3,13 L5.54415184,5.36754447 C5.81637994,4.55086019 6.58065762,4 7.44151844,4 Z" fill="#000000"></path>
    </g>
</svg>
